!!!COM: Georges Bizet
!!!CNT: Francais
!!!TXO: Francais
!!!OTL: Petite Marguerite
!!!LYR: Olivier Rolland
!!!ENC: Jacob Pegg
!!!YOR: Romantic French Song 1830-1870 -David Tunley, ed.,
!!!YOR: New York: Garland Publishing, Inc., 1995, Vol. 4
!!!ODT: 1854/
!!NB: Vocal melody and text only encoded.
!!NB: First instance of melodic material only encoded.
**kern	**silbe
*clef G2	*
*k[b-e-]	*
*M4/4	*
=8	=8
4r	.
8r	.
{8dd	{Pe-
8cc	-ti-
8b-	-te
8a	Mar-
8g	-gue-
=9	=9
4ee-}	-rite}
8r	.
{8ee-	{Un
8dd	jour
(24dd	ain-
24ee-	|
24dd)	|
8cc	-si
8ff	par-
=10	=10
4b-}	-lait}
4r	.
2r	.
=11	=11
4r	.
8r	.
{8dd	{a\
(16ddq	la
16ee-q	|
8dd)	|
8cc	bel-
8dd	-le
8b-	Bri-
=12	=12
(16cc	-git-
16ff)	|
8ff}	-te}
8r	.
{8cc	{qui
(64ccq	tout
8b-)	|
8a	bas
8b-	l'ef-
8g	-feuil-
=13	=13
(8a	-lait
8d)}	|}
8r	.
{8dd	{a\
(64ddq	la
8cc)	|
8bn	bel-
8cc	-le
8dd	Bri-
=14	=14
(8bn	-git-
8gg)	-te
8dd	qui
8bn	tout
8bn	bas
8g	l'ef-
(16aq	|
16bnq	|
8.a;)	|
16d	-feuil-
=15	=15
4g}	-lait:}
4r	.
2r	.
=16	=16
1r	.
=17	=17
4r	.
8r	.
{8dd	{"Mais
8cc	tu
8b-	com-
8a	-mets
8g	un
=18	=18
8ee-	cri-
8ee-}	-me}
8r	.
{8ee-	{Quand
8ee-	ta
8ee-	trem-
8.gg	-blan-
16gg	-te
=19	=19
4cc}	main}
8r	.
{8cc	{Im-
8ff	-mo-
8ff	-le u-
8.ff	-ne
16ff	vic-
=20	=20
8b-	-ti-
8b-	-me
8.b-	pour
16b-	sa-
4cc	-voir
8cc	ton
8cc	des-
=21	=21
4dd	-tin;
8.dd	pour
16dd	sa-
4een	-voir
8.een	ton
16een	des-
=22	=22
1ff#}	-tin.}
=23	=23
*k[f#]	*
{4.gg	{C'est
8gg	a\
4ff#	la
8.cc	pro-
16cc	-vi-
=24	=24
2ee	-den-
4dd}	-ce}
4r	.
=25	=25
{2dd	{c'est
8dd#	a\
8dd#	la
8cc##	pro-
8dd#	-vi-
=26	=26
2ff#	-den-
4ee}	-ce}
4r	.
=27	=27
{4.cc#	{Qu'il
8cc#	te
4cc#	faut
8cc#	cha-
8cc#	-que
=28	=28
2cc#}	jour}
4r	.
{8cc#	{De-
8cc#	-man-
=29	=29
2cc#	-der
4.ee	en
8dd	si-
=30	=30
2dd	-len-
4dd}	-ce}
8r	.
{8dd	{Un
=31	=1
[2gg	pur
8gg]	|
8b	et
8.b	saint
16b	a-
=32	=32
2b}	-mour.}
4r	.
{4dd	{Un
=33	=33
4ee	pur
4e	et
4f#	saint
16gq	|
16f#q	|
16eq	|
16f#q	|
(64f#q	|
4dd;)	a-
=34	=34
2g}	-mour.}
2r	.
*-	*-
